packages/components/src/telekom/icons/weather/moon-thunder-snow/default.svg

<?xml version="1.0" encoding="UTF-8"?>
<svg width="24px" height="24px" viewBox="0 0 24 24" version="1.1" xmlns="http://www.w3.org/2000/svg" xmlns:xlink="http://www.w3.org/1999/xlink">
    <title>icon/weather/moon-thunder-snow/default</title>
    <g id="icon/weather/moon-thunder-snow/default" stroke="none" stroke-width="1" fill="none" fill-rule="evenodd">
        <path d="M8.4096,15.2 L5.8476,18.8 L8.3348,18.8 L3.288,22.878 C3.16056,22.98096 2.992944,22.84902 3.0350532,22.7116692 L3.0572,22.666 L4.8628,20 L2.9508,20 L5.612,15.2 L8.4096,15.2 Z M11.8804,15.0216 L12.9196,15.6216 L12.2392,16.8 L13.6,16.8 L13.6,18 L12.2392,18 L12.9196,19.1784 L11.8804,19.7784 L11.2,18.6 L10.5196,19.7784 L9.4804,19.1784 L10.1608,18 L8.8,18 L8.8,16.8 L10.1608,16.8 L9.4804,15.6216 L10.5196,15.0216 L11.2,16.2 L11.8804,15.0216 Z M10.0996,5.9812 C12.4528,5.9812 14.528,7.4328 15.342,9.62 C16.722,10.3504 17.6,11.792 17.6,13.3636 C17.6,15.121552 16.521728,16.6288288 14.9933466,17.2685925 L14.8,17.344 L14.8,16.0376 C15.7516,15.5244 16.4,14.5184 16.4,13.3636 C16.4,12.2400889 15.772763,11.2089864 14.7865158,10.6837529 L14.6088,10.5964 L14.366,10.4868 L14.2844,10.2328 C13.6988,8.4072 12.0168,7.1808 10.0992,7.1808 C9.09415385,7.1808 8.12455385,7.5264 7.34235703,8.159397 L7.1508,8.3236 L6.8888,8.5616 L6.554,8.4472 C6.3108,8.3644 6.0628,8.3224 5.8156,8.3224 C4.61001667,8.3224 3.61970694,9.26247708 3.53927416,10.4480279 L3.534,10.604 L3.558,11.1208 L3.1852,11.2872 C2.2224,11.7176 1.6,12.6752 1.6,13.7272 C1.6,14.9165333 2.3814966,15.924098 3.45728539,16.2692546 L3.6208,16.316 L3.0256,17.39 C1.5008,16.8692 0.4,15.426 0.4,13.7272 C0.4,12.3356 1.1504,11.0584 2.342,10.372 C2.462,8.56 3.9744,7.1228 5.816,7.1228 C6.08,7.1228 6.344,7.1536 6.6036,7.2144 C7.5964,6.4168 8.8252,5.9812 10.0996,5.9812 Z M18.1764,0.5052 C19.066,0.2716 19.9616,0.2756 20.7976,0.4748 C18.8728,1.4004 17.8092,3.586 18.372,5.7288 C19.004,8.1352 21.448,9.58 23.8548,8.99 C23.1496,9.9236 22.1408,10.6384 20.9212,10.9588 C20.0092,11.1984 19.0908,11.1888 18.2364,10.974 C17.8052,10.0952 17.146,9.3336 16.298,8.79 C15.8132,7.7024 15.0724,6.792 14.1612,6.114 C13.9784,3.5704 15.62,1.1764 18.1764,0.5052 Z" id="Shape" fill="#262626" fill-rule="nonzero"></path>
    </g>
</svg>

<svg width="24" height="24" xmlns="http://www.w3.org/2000/svg"><path d="M8.41 15.2l-2.562 3.6h2.487l-5.047 4.078c-.127.103-.295-.029-.253-.166l.022-.046L4.863 20H2.95l2.661-4.8H8.41zm3.47-.178l1.04.6-.68 1.178h1.36V18h-1.36l.68 1.178-1.04.6-.68-1.178-.68 1.178-1.04-.6.68-1.178H8.8v-1.2h1.36l-.68-1.178 1.04-.6.68 1.178.68-1.178zm-1.78-9.04a5.577 5.577 0 015.242 3.638 4.245 4.245 0 012.258 3.744 4.238 4.238 0 01-2.607 3.905l-.193.075v-1.306a3.039 3.039 0 001.6-2.674 3.044 3.044 0 00-1.613-2.68l-.178-.088-.243-.11-.082-.253A4.381 4.381 0 0010.1 7.18a4.377 4.377 0 00-2.757.978l-.191.165-.262.238-.335-.115a2.286 2.286 0 00-.738-.125c-1.206 0-2.196.94-2.277 2.126l-.005.156.024.517-.373.166a2.677 2.677 0 00-1.585 2.44c0 1.19.781 2.197 1.857 2.542l.164.047-.595 1.074A3.876 3.876 0 01.4 13.727c0-1.391.75-2.669 1.942-3.355a3.486 3.486 0 014.262-3.158A5.574 5.574 0 0110.1 5.981zM18.176.504a5.38 5.38 0 012.622-.03 4.548 4.548 0 003.057 8.515 5.376 5.376 0 01-2.934 1.969c-.912.24-1.83.23-2.685.015a5.42 5.42 0 00-1.938-2.184 6.748 6.748 0 00-2.137-2.676A5.403 5.403 0 0118.176.505z" fill="#000" fill-rule="evenodd"/></svg>
